packages/core/src/svgs/tokens/mono/SAND.svg

<svg width="24" height="24" viewBox="0 0 24 24" fill="none" xmlns="http://www.w3.org/2000/svg">
<path d="M20.125 8.24997H13.875V6.37499H10.1249V10.125H18.1669L20.125 11.9999V19.9487L18.1669 22H5.89812L3.875 19.9487V15.7499H10.1249V18.2499H13.875V13.8749H5.85L3.875 11.9999V4.05124L5.89812 2H18.1669L20.125 4.05124V8.24997Z" fill="white"/>
</svg>

<svg xmlns="http://www.w3.org/2000/svg" width="24" height="24" fill="none" viewBox="0 0 24 24">
    <path fill="#fff" d="M20.125 8.25h-6.25V6.375h-3.75v3.75h8.042L20.125 12v7.949L18.167 22H5.898l-2.023-2.051v-4.2h6.25v2.5h3.75v-4.374H5.85L3.875 12V4.05L5.898 2h12.269l1.958 2.051z"/>
</svg>
